packages/heroicons/src/interstate/outline/trash.svg

<svg width="16" height="17" viewBox="0 0 16 17" fill="none" xmlns="http://www.w3.org/2000/svg">
<g clip-path="url(#clip0_1243_5101)">
<path d="M10.0137 6.34262L9.75932 12.9562M6.24056 12.9562L5.98619 6.34262M13.3111 3.9842C13.5624 4.02215 13.8128 4.06276 14.0624 4.10598M13.3111 3.9842L12.5264 14.1853C12.4602 15.0467 11.7419 15.7118 10.8779 15.7118H5.12199C4.25803 15.7118 3.53973 15.0467 3.47346 14.1853L2.68877 3.9842M13.3111 3.9842C12.4687 3.85698 11.6165 3.75955 10.7556 3.69302M1.9375 4.10598C2.18703 4.06276 2.43746 4.02215 2.68877 3.9842M2.68877 3.9842C3.53121 3.85698 4.38341 3.75955 5.24428 3.69302M10.7556 3.69302V3.01981C10.7556 2.15317 10.0864 1.42965 9.22021 1.40194C8.81504 1.38898 8.40825 1.38245 7.99994 1.38245C7.59163 1.38245 7.18484 1.38898 6.77967 1.40194C5.91347 1.42965 5.24428 2.15317 5.24428 3.01981V3.69302M10.7556 3.69302C9.84627 3.62276 8.92728 3.58697 7.99994 3.58697C7.07259 3.58697 6.15361 3.62276 5.24428 3.69302" stroke="black" stroke-width="1.5" stroke-linecap="round" stroke-linejoin="round"/>
</g>
<defs>
<clipPath id="clip0_1243_5101">
<rect width="16" height="16" fill="white" transform="translate(0 0.547119)"/>
</clipPath>
</defs>
</svg>

<svg viewBox="0 0 16 17">
  <g clip-path="url(#a)">
    <path stroke="currentColor" stroke-linecap="round" stroke-linejoin="round" stroke-width="1.5" d="m10.014 6.384-.255 6.614m-3.518 0-.255-6.614m7.325-2.358c.252.038.502.078.751.121m-.75-.121-.785 10.2a1.653 1.653 0 0 1-1.649 1.527H5.122a1.653 1.653 0 0 1-1.648-1.526L2.689 4.026m10.622 0a35.36 35.36 0 0 0-2.555-.292m-8.818.413c.25-.043.5-.083.75-.121m0 0a35.352 35.352 0 0 1 2.556-.292m5.512 0v-.673c0-.866-.67-1.59-1.536-1.618a38.168 38.168 0 0 0-2.44 0c-.866.028-1.536.752-1.536 1.618v.673m5.512 0a35.763 35.763 0 0 0-5.512 0"/>
  </g>
  <defs>
    <clipPath id="a">
      <path d="M0 0h16v16H0z" transform="translate(0 .589)"/>
    </clipPath>
  </defs>
</svg>
